X: 1
T: Urheimen
O: etter Ola Mosafinn
R: Vossarull
M: 2/4
L: 1/16
K: A
|: FD | cdef {g}a3b | agaf e =GFD | cdfb agaf | dc{G}A2- ~A2 :|
|: FD | cdef {g}a3b | aga2- a2fb | gefg agab | aga2- a2 :|
|: cA | {g}a2fd c2ec | d2BG E2 bg | a2fd ceBG | Bc{G}A2- ~A2 :| [K:D]
|: FD | {c}d2BG F2AF | G2EC A,2 ec | d2BG FAEC | EF{C}D2- ~D2 :|
|: FA | G2EC A,2 ef | {c}d2ec A2FA |1 G2E^G {G}A3B | A^GA- ~A2 :|2 {F}G2EC D3F | EC{C}D2- ~D2 |]
